public/dist/img/ico-menu.svg

<?xml version="1.0" encoding="UTF-8" standalone="no"?>
<svg width="18px" height="14px" viewBox="0 0 18 14" version="1.1" xmlns="http://www.w3.org/2000/svg" xmlns:xlink="http://www.w3.org/1999/xlink" xmlns:sketch="http://www.bohemiancoding.com/sketch/ns">
    <!-- Generator: Sketch 3.5.1 (25234) - http://www.bohemiancoding.com/sketch -->
    <title>Rectangle 109</title>
    <desc>Created with Sketch.</desc>
    <defs></defs>
    <g id="Page-1" stroke="none" stroke-width="1" fill="none" fill-rule="evenodd" sketch:type="MSPage">
        <g id="ico-menu" sketch:type="MSLayerGroup" fill="#FFFFFF">
            <path d="M0,13 C0,12.4477153 0.444946289,12 0.993397683,12 L17.0066023,12 C17.5552407,12 18,12.4438648 18,13 C18,13.5522847 17.5550537,14 17.0066023,14 L0.993397683,14 C0.444759292,14 0,13.5561352 0,13 Z M0,7 C0,6.44771525 0.444946289,6 0.993397683,6 L17.0066023,6 C17.5552407,6 18,6.44386482 18,7 C18,7.55228475 17.5550537,8 17.0066023,8 L0.993397683,8 C0.444759292,8 0,7.55613518 0,7 Z M0,1 C0,0.44771525 0.444946289,0 0.993397683,0 L17.0066023,0 C17.5552407,0 18,0.443864822 18,1 C18,1.55228475 17.5550537,2 17.0066023,2 L0.993397683,2 C0.444759292,2 0,1.55613518 0,1 Z" id="Rectangle-109" sketch:type="MSShapeGroup"></path>
        </g>
    </g>
</svg>

<svg width="18" height="14" viewBox="0 0 18 14" xmlns="http://www.w3.org/2000/svg"><title>Rectangle 109</title><path d="M0 13c0-.552.445-1 .993-1h16.014c.548 0 .993.444.993 1 0 .552-.445 1-.993 1H.993A.994.994 0 0 1 0 13zm0-6c0-.552.445-1 .993-1h16.014c.548 0 .993.444.993 1 0 .552-.445 1-.993 1H.993A.994.994 0 0 1 0 7zm0-6c0-.552.445-1 .993-1h16.014c.548 0 .993.444.993 1 0 .552-.445 1-.993 1H.993A.994.994 0 0 1 0 1z" fill="#FFF" fill-rule="evenodd"/></svg>
